X: 1
T: Scotty Fitzgerald's Jig
C: Sandy MacIntyre 1962
Z: John Chambers <jc:trillian.mit.edu>
M: 6/8
L: 1/8
K: A
E \
| "A"ABA "E7"c2d | "A"eag "D"fed | "A"cBA EAc | "Bm"B3- "E7"B2c \
| "A"ABA "E7"c2d | "A"eag "D"fed | "A"cBA "E7"EcB | "A"A3- A2 :|
e \
| "A"c'2z a2z | aga "E7"e2d | "A"cBA EAc | "Bm"B3- "E7"B2e \
| "A"c'2z a2z | aga ecA | "D"dcd | "E7"bge | "A"a3- a2 ||
e \
| "A"c'2z a2z | aga "E7"e2d | "A"cBA aec | "Bm"B3- "E7"B2d \
| "A"cde Ace | "D"def "Bm"Bba | "E7"gfe dcB | "A"A3- A2 |]
